X:1
T:Autumn Leaves
C:J. Kosma
K:Bb
M:4/4
L:1/4
Q:140
G A B [|: "Cm7" e4- | "F7" e F G A | "Bbmaj7" d2 d2- | "Ebmaj7" d E F G | "Am7(b5)" c4-
||[1 "D7" c D =E ^F  | "Gm" B4 | z G A B :|[2 "D7" c A c B | "Gm" G4- | G z ^F G ||
"D7" A D A2- | A A G A | "Gm" B4- | B B A B | "Cm7" c4- | "F7" c F f e |
"Bbmaj7" d4- | d z ^c d | "Am7(b5)" e e =c c | "D7" A3 e | "Gm" d2 d2- |
"Gm" d3 G | "Am7(b5)" c3 B | "D7" A2 B D | "Gm" G4- | "(G7)" G4 ||
